X: 5258
T: Broken Sword
R: jig
M: 6/8
K: Aminor
|:EAA cBc|dBG Bcd|ede dcd|efg g2A|
EAA cBc|dBG Bcd|ede dcd|1 eAA A2D:|2 eAA A2e||
|:a3 a3|gec d2d|cAA eAA|cde deg|
a3 a3|gec d2d|cAA eAA|1 E^F^G A2e:|2 E^F^G A2D||

